!! 00000] TT[WS
!!!OTL: Fenhong lian
!!!ARE: Asia, China,ÿShanxi qixian
!! Ethnic Group: Han
!! WI, 101 (1)
!!!SCT: J0118
!!!YEM: Copyright 1995, estate of Helmut Schaffrath.
**kern
*ICvox
*Ivox
*M2/4
*k[f#]
*G:
{8g
16g
16a
8dd
8b
=1
4.a
8dd
=2
8b
16b
16a
8g
8e
=3
2d}
=4
{8b
16b
16a
4g
=5
8b
16b
16a
4g
=6
8a
8dd
8g
8e
=7
2d}
=8
{8dd
16dd
16gg
8b
8a
=9
8a
8dd
8b
8dd
=10
8a
8dd
8b
16b
16a
=11
2g}
=12
{8b
16b
16a
8b
8dd
=13
8b
16b
16a
4g
=14
8a
8dd
8g
8e
=15
2d}
==
!!!AGN: Xiaodiao. Qingge, Aisu
!!!ONB: ESAC (Essen Associative Code) Database: CHINA
!!!AMT: simple duple
!!!AIN: vox
!!!EED: Helmut Schaffrath
!!!EEV: 1.0
*-
